X: 32
T: Farewell to Connaught
R: reel
Z: 2012 John Chambers <jc@trillian.mit.edu>
B: "100 Essential Irish Session Tunes" 1995 Dave Mallinson, ed.
M: 4/4
L: 1/8
K: D
E |\
"D"D2ED EGAB | "C"=cBcd c2AG | "D"Addc d2cd | "A"edcd "(D)"edcd |\
"D"D2ED EGAB | "C"=cBcd c2AG | "A7"ABAG EGAB | "C"=cAGE "D"ED D :|
|: z |\
"C"eggf g2ed | =cded cAAg | "Am"eaag a2ag | eaag edcd |\
"C"eggf g2ed | =cded cAAG | "Am"ABAG EGAB | "C"=cAGE "D"ED D :|

%%sep 2 1 500
%%sep 1 1 500

